; generated by Slic3r 0.9.5 on 2012-12-01 at 17:41:13

; layer_height = 0.2
; perimeters = 2
; top_solid_layers = 2
; bottom_solid_layers = 2
; fill_density = 0.4
; perimeter_speed = 35
; infill_speed = 80
; travel_speed = 80
; scale = 1
; nozzle_diameter = 0.5
; filament_diameter = 2.93
; extrusion_multiplier = 1
; perimeters extrusion width = 0.70mm
; infill extrusion width = 0.70mm
; first layer extrusion width = 0.40mm

M107
M190 S30 ; wait for bed temperature to be reached
M104 S190 ; set temperature
G28 ; home all axes
M109 S190 ; wait for temperature to be reached
G90 ; use absolute coordinates
G21 ; set units to millimeters
G92 E0
M82 ; use absolute distances for extrusion
G1 F1800.000 E-1.00000
G92 E0
G1 Z0.200 F4800.000
G1 X50.050 Y101.950
G1 F1800.000 E1.00000
G1 X75.480 Y81.910 F1050.000 E1.40476
G1 X75.530 Y81.880 E1.40549
G1 X77.210 Y80.580 E1.43205
G1 X77.530 Y80.350 E1.43698
G1 X79.280 Y79.160 E1.46343
G1 X79.620 Y78.940 E1.46849
G1 X81.450 Y77.860 E1.49506
G1 X81.780 Y77.680 E1.49976
G1 X83.670 Y76.710 E1.52632
G1 X84.060 Y76.520 E1.53174
G1 X86.010 Y75.680 E1.55828
G1 X86.380 Y75.540 E1.56323
G1 X88.380 Y74.820 E1.58980
G1 X88.770 Y74.690 E1.59494
G1 X90.810 Y74.100 E1.62149
G1 X91.170 Y74.010 E1.62613
G1 X93.240 Y73.540 E1.65267
G1 X93.660 Y73.460 E1.65801
G1 X95.760 Y73.130 E1.68459
G1 X96.160 Y73.080 E1.68963
G1 X98.270 Y72.880 E1.71612
G1 X98.690 Y72.850 E1.72139
G1 X100.810 Y72.790 E1.74790
G1 X101.170 Y72.790 E1.75240
G1 X103.300 Y72.850 E1.77904
G1 X103.740 Y72.880 E1.78455
G1 X106.020 Y73.100 E1.81319
G1 X106.420 Y73.150 E1.81823
G1 X108.350 Y73.460 E1.84266
G1 X108.750 Y73.540 E1.84776
G1 X110.820 Y74.010 E1.87430
G1 X111.180 Y74.100 E1.87894
G1 X113.220 Y74.690 E1.90549
G1 X113.610 Y74.820 E1.91063
G1 X115.610 Y75.540 E1.93720
G1 X115.980 Y75.680 E1.94215
G1 X117.930 Y76.520 E1.96869
G1 X118.320 Y76.710 E1.97411
G1 X120.210 Y77.680 E2.00067
G1 X120.540 Y77.860 E2.00537
G1 X122.370 Y78.940 E2.03194
G1 X122.530 Y79.040 E2.03429
G1 X152.220 Y97.780 E2.47322
G1 X152.450 Y97.930 E2.47665
G1 X152.660 Y98.080 E2.47988
G1 X152.880 Y98.250 E2.48335
G1 X153.280 Y98.610 E2.49008
G1 X153.470 Y98.800 E2.49344
G1 X153.650 Y99.000 E2.49680
G1 X153.820 Y99.210 E2.50018
G1 X153.980 Y99.420 E2.50348
G1 X154.130 Y99.640 E2.50681
G1 X154.280 Y99.870 E2.51024
G1 X154.410 Y100.100 E2.51354
G1 X154.540 Y100.340 E2.51696
G1 X154.650 Y100.590 E2.52037
G1 X154.760 Y100.830 E2.52367
G1 X154.850 Y101.090 E2.52711
G1 X154.940 Y101.340 E2.53043
G1 X155.010 Y101.600 E2.53380
G1 X155.070 Y101.860 E2.53714
G1 X155.120 Y102.130 E2.54057
G1 X155.160 Y102.390 E2.54386
G1 X155.190 Y102.660 E2.54725
G1 X155.210 Y102.930 E2.55064
G1 X155.210 Y113.060 E2.67728
G1 X155.190 Y113.330 E2.68066
G1 X155.160 Y113.590 E2.68393
G1 X155.080 Y114.110 E2.69051
G1 X155.020 Y114.370 E2.69385
G1 X154.950 Y114.620 E2.69709
G1 X154.870 Y114.870 E2.70037
G1 X154.780 Y115.120 E2.70370
G1 X154.680 Y115.360 E2.70695
G1 X154.440 Y115.840 E2.71366
G1 X154.310 Y116.070 E2.71696
G1 X154.180 Y116.290 E2.72015
G1 X154.030 Y116.510 E2.72348
G1 X153.870 Y116.720 E2.72678
G1 X153.700 Y116.930 E2.73016
G1 X153.530 Y117.130 E2.73344
G1 X153.350 Y117.320 E2.73671
G1 X153.160 Y117.500 E2.73999
G1 X152.960 Y117.680 E2.74335
G1 X152.760 Y117.840 E2.74655
G1 X152.550 Y118.000 E2.74985
G1 X152.330 Y118.150 E2.75318
G1 X152.110 Y118.290 E2.75644
G1 X151.880 Y118.420 E2.75974
G1 X151.640 Y118.550 E2.76316
G1 X151.400 Y118.660 E2.76646
G1 X151.160 Y118.760 E2.76971
G1 X150.910 Y118.850 E2.77303
G1 X150.410 Y119.010 E2.77959
G1 X150.150 Y119.070 E2.78293
G1 X149.890 Y119.120 E2.78624
G1 X149.630 Y119.160 E2.78953
G1 X149.370 Y119.190 E2.79280
G1 X60.050 Y127.170 E3.91388
G1 X59.610 Y127.190 E3.91938
G1 X59.130 Y127.200 E3.92539
G1 X58.870 Y127.200 E3.92864
G1 X58.380 Y127.190 E3.93476
G1 X57.860 Y127.160 E3.94127
G1 X57.370 Y127.110 E3.94743
G1 X57.110 Y127.080 E3.95070
G1 X56.620 Y127.010 E3.95689
G1 X56.070 Y126.900 E3.96390
G1 X55.600 Y126.790 E3.96994
G1 X55.260 Y126.700 E3.97433
G1 X54.780 Y126.560 E3.98059
G1 X54.470 Y126.460 E3.98466
G1 X54.010 Y126.300 E3.99075
G1 X53.520 Y126.110 E3.99732
G1 X53.070 Y125.910 E4.00347
G1 X52.750 Y125.760 E4.00789
G1 X52.320 Y125.540 E4.01393
G1 X51.960 Y125.340 E4.01908
G1 X51.540 Y125.090 E4.02519
G1 X51.290 Y124.930 E4.02890
G1 X50.880 Y124.660 E4.03504
G1 X50.420 Y124.330 E4.04211
G1 X50.030 Y124.020 E4.04834
G1 X49.760 Y123.790 E4.05278
G1 X49.400 Y123.470 E4.05880
G1 X49.130 Y123.210 E4.06348
G1 X48.780 Y122.860 E4.06967
G1 X48.520 Y122.590 E4.07436
G1 X48.200 Y122.230 E4.08038
G1 X47.970 Y121.960 E4.08481
G1 X47.660 Y121.570 E4.09104
G1 X47.330 Y121.110 E4.09812
G1 X47.060 Y120.700 E4.10426
G1 X46.900 Y120.450 E4.10797
G1 X46.650 Y120.030 E4.11408
G1 X46.450 Y119.670 E4.11922
G1 X46.230 Y119.240 E4.12526
G1 X46.080 Y118.920 E4.12968
G1 X45.880 Y118.470 E4.13584
G1 X45.690 Y117.980 E4.14241
G1 X45.530 Y117.520 E4.14850
G1 X45.430 Y117.210 E4.15257
G1 X45.290 Y116.730 E4.15882
G1 X45.200 Y116.390 E4.16322
G1 X45.090 Y115.920 E4.16925
G1 X44.980 Y115.370 E4.17626
G1 X44.910 Y114.880 E4.18245
G1 X44.880 Y114.620 E4.18572
G1 X44.830 Y114.130 E4.19188
G1 X44.800 Y113.610 E4.19839
G1 X44.790 Y113.120 E4.20452
G1 X44.790 Y112.860 E4.20777
G1 X44.800 Y112.380 E4.21377
G1 X44.830 Y111.860 E4.22028
G1 X44.880 Y111.370 E4.22644
G1 X44.910 Y111.110 E4.22971
G1 X44.980 Y110.620 E4.23590
G1 X45.090 Y110.070 E4.24291
G1 X45.200 Y109.600 E4.24895
G1 X45.290 Y109.260 E4.25334
G1 X45.430 Y108.780 E4.25959
G1 X45.530 Y108.470 E4.26367
G1 X45.690 Y108.010 E4.26975
G1 X45.880 Y107.520 E4.27632
G1 X46.080 Y107.070 E4.28248
G1 X46.230 Y106.750 E4.28690
G1 X46.450 Y106.320 E4.29294
G1 X46.650 Y105.960 E4.29809
G1 X46.900 Y105.540 E4.30420
G1 X47.060 Y105.290 E4.30791
G1 X47.330 Y104.880 E4.31404
G1 X47.660 Y104.420 E4.32112
G1 X47.970 Y104.030 E4.32735
G1 X48.200 Y103.760 E4.33178
G1 X48.520 Y103.400 E4.33781
G1 X48.780 Y103.130 E4.34249
G1 X49.130 Y102.780 E4.34868
G1 X49.400 Y102.520 E4.35337
G1 X49.760 Y102.200 E4.35939
G1 X50.050 Y101.950 E4.36417
G1 F1800.000 E3.36417
G92 E0
G1 X57.047 Y109.618 F4800.000
G1 F1800.000 E1.00000
G1 X60.953 Y109.618 F600.000 E1.04882
G1 X62.905 Y113.000 E1.09764
G1 X60.953 Y116.382 E1.14646
G1 X57.047 Y116.382 E1.19528
G1 X55.095 Y113.000 E1.24410
G1 X57.047 Y109.618 E1.29293
G1 X57.285 Y110.029 F4800.000
G1 X60.715 Y110.029 F600.000 E1.33582
G1 X62.431 Y113.000 E1.37871
G1 X60.715 Y115.971 E1.42160
G1 X57.285 Y115.971 E1.46449
G1 X55.569 Y113.000 E1.50738
G1 X57.285 Y110.029 E1.55028
G1 F1800.000 E0.55028
G92 E0
G1 X55.854 Y119.686 F4800.000
G1 F1800.000 E1.00000
G1 X55.440 Y119.475 F1050.000 E1.00580
G1 X55.041 Y119.239 E1.01161
G1 X54.657 Y118.978 E1.01741
G1 X54.290 Y118.693 E1.02321
G1 X53.942 Y118.386 E1.02902
G1 X53.614 Y118.058 E1.03482
G1 X53.307 Y117.710 E1.04062
G1 X53.022 Y117.343 E1.04642
G1 X52.761 Y116.959 E1.05223
G1 X52.525 Y116.560 E1.05803
G1 X52.314 Y116.146 E1.06383
G1 X52.130 Y115.720 E1.06964
G1 X51.973 Y115.283 E1.07544
G1 X51.843 Y114.838 E1.08124
G1 X51.742 Y114.385 E1.08705
G1 X51.669 Y113.926 E1.09285
G1 X51.626 Y113.464 E1.09865
G1 X51.611 Y113.000 E1.10445
G1 X51.626 Y112.536 E1.11026
G1 X51.669 Y112.074 E1.11606
G1 X51.742 Y111.615 E1.12186
G1 X51.843 Y111.162 E1.12767
G1 X51.973 Y110.717 E1.13347
G1 X52.130 Y110.280 E1.13927
G1 X52.314 Y109.854 E1.14508
G1 X52.525 Y109.440 E1.15088
G1 X52.761 Y109.041 E1.15668
G1 X53.022 Y108.657 E1.16249
G1 X53.307 Y108.290 E1.16829
G1 X53.614 Y107.942 E1.17409
G1 X53.942 Y107.614 E1.17989
G1 X54.290 Y107.307 E1.18570
G1 X54.657 Y107.022 E1.19150
G1 X55.041 Y106.761 E1.19730
G1 X55.440 Y106.525 E1.20311
G1 X55.854 Y106.314 E1.20891
G1 X56.280 Y106.130 E1.21471
G1 X56.717 Y105.973 E1.22052
G1 X57.162 Y105.843 E1.22632
G1 X57.615 Y105.742 E1.23212
G1 X58.074 Y105.669 E1.23792
G1 X58.536 Y105.626 E1.24373
G1 X59.241 Y105.603 E1.25255
G1 X77.065 Y89.689 E1.55127
G1 X77.094 Y89.710 E1.55172
G1 X78.144 Y88.661 E1.57027
G1 X79.717 Y87.273 E1.59649
G1 X81.374 Y85.988 E1.62271
G1 X83.109 Y84.809 E1.64894
G1 X84.915 Y83.741 E1.67516
G1 X86.784 Y82.789 E1.70138
G1 X88.709 Y81.956 E1.72760
G1 X90.682 Y81.245 E1.75383
G1 X92.696 Y80.660 E1.78005
G1 X94.744 Y80.202 E1.80627
G1 X96.815 Y79.874 E1.83249
G1 X98.903 Y79.677 E1.85872
G1 X101.000 Y79.611 E1.88494
G1 X103.097 Y79.677 E1.91116
G1 X105.185 Y79.874 E1.93738
G1 X107.256 Y80.202 E1.96361
G1 X109.304 Y80.660 E1.98983
G1 X111.318 Y81.245 E2.01605
G1 X113.291 Y81.956 E2.04227
G1 X115.216 Y82.789 E2.06850
G1 X117.085 Y83.741 E2.09472
G1 X118.891 Y84.809 E2.12094
G1 X120.626 Y85.988 E2.14716
G1 X122.283 Y87.273 E2.17339
G1 X123.810 Y88.620 E2.19884
G1 X123.811 Y88.621 E2.19885
G1 X123.856 Y88.660 E2.19961
G1 X125.222 Y90.026 E2.22375
G1 X125.224 Y90.028 E2.22379
G1 X125.339 Y90.144 E2.22583
G1 X126.727 Y91.717 E2.25205
G1 X128.007 Y93.367 E2.27816
G1 X128.008 Y93.368 E2.27818
G1 X128.012 Y93.374 E2.27827
G1 X129.191 Y95.109 E2.30450
G1 X130.259 Y96.915 E2.33072
G1 X131.211 Y98.784 E2.35694
G1 X132.044 Y100.709 E2.38316
G1 X132.755 Y102.682 E2.40939
G1 X133.025 Y103.611 E2.42147
G1 X148.389 Y103.611 E2.61356
G1 X148.389 Y112.389 E2.72330
G1 X129.592 Y112.389 E2.95830
G1 X129.555 Y111.203 E2.97313
G1 X129.390 Y109.466 E2.99495
G1 X129.394 Y109.466 E2.99499
G1 X129.385 Y109.414 E2.99564
G1 X129.385 Y109.414 E2.99564
G1 X129.104 Y107.639 E3.01811
G1 X128.712 Y105.885 E3.04058
G1 X128.581 Y105.435 E3.04644
G1 X128.581 Y105.435 E3.04644
G1 X128.211 Y104.159 E3.06305
G1 X127.602 Y102.468 E3.08552
G1 X126.888 Y100.818 E3.10799
G1 X126.072 Y99.217 E3.13046
G1 X125.157 Y97.669 E3.15293
G1 X124.147 Y96.183 E3.17540
G1 X123.045 Y94.763 E3.19787
G1 X121.857 Y93.414 E3.22034
G1 X120.586 Y92.143 E3.24281
G1 X119.237 Y90.955 E3.26528
G1 X117.817 Y89.853 E3.28775
G1 X116.331 Y88.843 E3.31022
G1 X114.783 Y87.928 E3.33269
G1 X113.182 Y87.112 E3.35517
G1 X111.532 Y86.398 E3.37763
G1 X109.841 Y85.789 E3.40010
G1 X108.115 Y85.288 E3.42257
G1 X106.361 Y84.896 E3.44504
G1 X104.586 Y84.615 E3.46751
G1 X102.797 Y84.445 E3.48998
G1 X101.000 Y84.389 E3.51245
G1 X99.203 Y84.445 E3.53492
G1 X97.414 Y84.615 E3.55739
G1 X95.639 Y84.896 E3.57986
G1 X93.885 Y85.288 E3.60233
G1 X92.159 Y85.789 E3.62480
G1 X90.468 Y86.398 E3.64727
G1 X88.818 Y87.112 E3.66974
G1 X87.217 Y87.928 E3.69221
G1 X85.669 Y88.843 E3.71468
G1 X84.183 Y89.853 E3.73715
G1 X82.763 Y90.955 E3.75962
G1 X81.414 Y92.143 E3.78209
G1 X80.144 Y93.414 E3.80456
G1 X78.955 Y94.763 E3.82703
G1 X77.853 Y96.183 E3.84950
G1 X76.843 Y97.669 E3.87197
G1 X75.928 Y99.217 E3.89444
G1 X75.112 Y100.818 E3.91691
G1 X74.398 Y102.468 E3.93938
G1 X73.789 Y104.159 E3.96185
G1 X73.288 Y105.885 E3.98432
G1 X72.896 Y107.639 E4.00679
G1 X72.615 Y109.414 E4.02926
G1 X72.445 Y111.203 E4.05173
G1 X72.408 Y112.389 E4.06657
G1 X66.408 Y112.389 E4.14157
G1 X66.374 Y113.464 E4.15502
G1 X66.331 Y113.926 E4.16082
G1 X66.258 Y114.385 E4.16662
G1 X66.157 Y114.838 E4.17243
G1 X66.027 Y115.283 E4.17823
G1 X65.870 Y115.720 E4.18403
G1 X65.686 Y116.146 E4.18983
G1 X65.475 Y116.560 E4.19564
G1 X65.239 Y116.959 E4.20144
G1 X64.978 Y117.343 E4.20724
G1 X64.693 Y117.710 E4.21305
G1 X64.386 Y118.058 E4.21885
G1 X64.058 Y118.386 E4.22465
G1 X63.710 Y118.693 E4.23046
G1 X63.343 Y118.978 E4.23626
G1 X62.959 Y119.239 E4.24206
G1 X62.560 Y119.475 E4.24786
G1 X62.146 Y119.686 E4.25367
G1 X61.720 Y119.870 E4.25947
G1 X61.283 Y120.027 E4.26527
G1 X60.838 Y120.157 E4.27108
G1 X60.385 Y120.258 E4.27688
G1 X59.926 Y120.331 E4.28268
G1 X59.464 Y120.374 E4.28849
G1 X59.000 Y120.389 E4.29429
G1 X58.536 Y120.374 E4.30009
G1 X58.074 Y120.331 E4.30590
G1 X57.615 Y120.258 E4.31170
G1 X57.162 Y120.157 E4.31750
G1 X56.717 Y120.027 E4.32330
G1 X56.280 Y119.870 E4.32911
G1 X55.854 Y119.686 E4.33491
G1 X55.679 Y120.058 F4800.000
G1 X55.242 Y119.835 F1500.000 E4.34104
G1 X54.821 Y119.586 E4.34716
G1 X54.415 Y119.310 E4.35329
G1 X54.028 Y119.010 E4.35941
G1 X53.661 Y118.686 E4.36554
G1 X53.314 Y118.339 E4.37166
G1 X52.990 Y117.972 E4.37779
G1 X52.690 Y117.585 E4.38392
G1 X52.414 Y117.179 E4.39004
G1 X52.165 Y116.758 E4.39617
G1 X51.942 Y116.321 E4.40229
G1 X51.748 Y115.871 E4.40842
G1 X51.582 Y115.410 E4.41454
G1 X51.445 Y114.940 E4.42067
G1 X51.338 Y114.462 E4.42680
G1 X51.262 Y113.978 E4.43292
G1 X51.216 Y113.490 E4.43905
G1 X51.200 Y113.000 E4.44517
G1 X51.216 Y112.510 E4.45130
G1 X51.262 Y112.022 E4.45742
G1 X51.338 Y111.538 E4.46355
G1 X51.445 Y111.060 E4.46968
G1 X51.582 Y110.590 E4.47580
G1 X51.748 Y110.129 E4.48193
G1 X51.942 Y109.679 E4.48805
G1 X52.165 Y109.242 E4.49418
G1 X52.414 Y108.821 E4.50030
G1 X52.690 Y108.415 E4.50643
G1 X52.990 Y108.028 E4.51256
G1 X53.314 Y107.661 E4.51868
G1 X53.661 Y107.314 E4.52481
G1 X54.028 Y106.990 E4.53093
G1 X54.415 Y106.690 E4.53706
G1 X54.821 Y106.414 E4.54319
G1 X55.242 Y106.165 E4.54931
G1 X55.679 Y105.942 E4.55544
G1 X56.129 Y105.748 E4.56156
G1 X56.590 Y105.582 E4.56769
G1 X57.060 Y105.445 E4.57381
G1 X57.538 Y105.338 E4.57994
G1 X58.022 Y105.262 E4.58606
G1 X58.510 Y105.215 E4.59219
G1 X59.079 Y105.198 E4.59930
G1 X77.036 Y89.164 E4.90025
G1 X77.049 Y89.174 E4.90046
G1 X77.862 Y88.361 E4.91484
G1 X79.455 Y86.957 E4.94138
G1 X81.133 Y85.655 E4.96793
G1 X82.889 Y84.462 E4.99447
G1 X84.717 Y83.381 E5.02102
G1 X86.609 Y82.417 E5.04756
G1 X88.557 Y81.574 E5.07411
G1 X90.555 Y80.854 E5.10065
G1 X92.594 Y80.262 E5.12720
G1 X94.667 Y79.799 E5.15374
G1 X96.764 Y79.467 E5.18029
G1 X98.878 Y79.267 E5.20683
G1 X101.000 Y79.200 E5.23338
G1 X103.122 Y79.267 E5.25992
G1 X105.402 Y79.482 E5.28855
G1 X105.402 Y79.493 E5.28869
G1 X107.333 Y79.799 E5.31313
G1 X109.406 Y80.262 E5.33967
G1 X111.445 Y80.854 E5.36622
G1 X113.443 Y81.574 E5.39276
G1 X115.391 Y82.417 E5.41931
G1 X117.283 Y83.381 E5.44585
G1 X119.111 Y84.462 E5.47240
G1 X120.867 Y85.655 E5.49894
G1 X122.545 Y86.957 E5.52549
G1 X124.081 Y88.311 E5.55109
G1 X124.081 Y88.311 E5.55110
G1 X124.082 Y88.312 E5.55111
G1 X124.138 Y88.361 E5.55204
G1 X125.512 Y89.735 E5.57633
G1 X125.514 Y89.737 E5.57637
G1 X125.639 Y89.862 E5.57858
G1 X127.043 Y91.455 E5.60512
G1 X128.331 Y93.116 E5.63140
G1 X128.332 Y93.117 E5.63142
G1 X128.333 Y93.118 E5.63143
G1 X128.345 Y93.133 E5.63167
G1 X129.538 Y94.889 E5.65822
G1 X130.619 Y96.717 E5.68476
G1 X131.583 Y98.609 E5.71131
G1 X132.426 Y100.557 E5.73785
G1 X133.146 Y102.555 E5.76440
G1 X133.333 Y103.200 E5.77279
G1 X148.800 Y103.200 E5.96615
G1 X148.800 Y112.800 E6.08617
G1 X129.194 Y112.800 E6.33127
G1 X129.144 Y111.229 E6.35092
G1 X128.978 Y109.466 E6.37306
G1 X128.913 Y109.055 E6.37826
G1 X128.913 Y109.055 E6.37826
G1 X128.701 Y107.716 E6.39521
G1 X128.314 Y105.987 E6.41736
G1 X127.820 Y104.286 E6.43951
G1 X127.220 Y102.619 E6.46165
G1 X126.516 Y100.993 E6.48380
G1 X125.712 Y99.415 E6.50595
G1 X124.810 Y97.890 E6.52809
G1 X123.814 Y96.424 E6.55024
G1 X122.729 Y95.025 E6.57239
G1 X121.557 Y93.696 E6.59454
G1 X120.304 Y92.443 E6.61668
G1 X118.975 Y91.271 E6.63883
G1 X117.576 Y90.186 E6.66098
G1 X116.110 Y89.190 E6.68313
G1 X114.585 Y88.288 E6.70527
G1 X113.007 Y87.484 E6.72742
G1 X111.381 Y86.780 E6.74957
G1 X109.714 Y86.180 E6.77172
G1 X108.013 Y85.686 E6.79386
G1 X106.284 Y85.299 E6.81601
G1 X104.534 Y85.022 E6.83816
G1 X102.771 Y84.856 E6.86030
G1 X101.000 Y84.800 E6.88245
G1 X99.229 Y84.856 E6.90460
G1 X97.466 Y85.022 E6.92675
G1 X95.716 Y85.299 E6.94889
G1 X93.987 Y85.686 E6.97104
G1 X92.286 Y86.180 E6.99319
G1 X90.619 Y86.780 E7.01534
G1 X88.993 Y87.484 E7.03748
G1 X87.414 Y88.288 E7.05963
G1 X85.890 Y89.190 E7.08178
G1 X84.424 Y90.186 E7.10392
G1 X83.025 Y91.271 E7.12607
G1 X81.696 Y92.443 E7.14822
G1 X80.443 Y93.696 E7.17037
G1 X79.271 Y95.025 E7.19251
G1 X78.186 Y96.424 E7.21466
G1 X77.190 Y97.890 E7.23681
G1 X76.288 Y99.414 E7.25896
G1 X75.484 Y100.993 E7.28110
G1 X74.780 Y102.619 E7.30325
G1 X74.180 Y104.286 E7.32540
G1 X73.686 Y105.987 E7.34754
G1 X73.299 Y107.716 E7.36969
G1 X73.022 Y109.466 E7.39184
G1 X72.856 Y111.229 E7.41399
G1 X72.806 Y112.800 E7.43363
G1 X66.806 Y112.800 E7.50864
G1 X66.784 Y113.490 E7.51727
G1 X66.738 Y113.978 E7.52339
G1 X66.662 Y114.462 E7.52952
